X: 8796
T: Cuckoo, The
R: hornpipe
M: 4/4
K: Gmajor
B>GD>G c>AF>A|d>^cd>e d>BG>F|E>c (3cBc A>GF>G|(3ABA (3GFE D2 (3dcd|
B>GD>G c>A (3FGA|(3d^cd d>e d>BG>F|E>c (3ccc A>GF>G|(3ABA G>F G2:|
b>g (3gfg d>gB>g|b>g (3ggg d>gB>g|c'>a (3aba e>ac>a|c'>a (3aaa e>ac>a|
b>g (3gfg d>g (3Bcd|bg (3ggg d>gB>g|(3aba (3gag (3fgf (3efe|(3ded (3cdc (3BcB:|

